X:1
T:Holland, LM
T:Berthold Tours, 1875
T:Holland, LM
T:Public Domain
C:Berthold Tours, 1875
Z:Public Domain
%%score ( 1 2 ) ( 3 4 )
L:1/8
M:none
K:F
V:1 treble 
V:2 treble 
V:3 bass 
V:4 bass 
V:1
 [FA]2 | [FG]2 [EG]2 [Fc]2 [FA]2 | F2 [EG]2 [FA]2 [GA]2 | [FA]2 [F=B]2 [Ec]2 [^Fd]2 | %4
 [Ge]2 [Gd]2 [Gc]2 [Ac]2 | [GB]2 [Gd]2 [Gc]2 [FA]2 | [EA]2 [EG]2 [DF]2 [CF]2 | %7
 [B,F]2 (BA) [Ed]2 [Fc]2 | [FA]2 [EG]2 F2 |] %9
V:2
 x2 | x8 | F2 x6 | x8 | x8 | x8 | x8 | x2 C2 x4 | x4 F2 |] %9
V:3
 [F,C]2 | [B,D]2 [B,C]2 [A,C]2 [F,C]2 | [B,D]2 [B,_D]2 [F,C]2 [E,^C]2 | %3
 [D,D]2 [^G,D]2 [A,C]2 [D,C]2 | [G,C]2 (=B,F) [CE]2 [^F,D]2 | [G,D]2 [F,B,]2 [E,C]2 [F,C]2 | %6
 [C,B,]2 [^C,B,]2 [D,A,]2 [_E,A,]2 | [D,F,]2 ([E,G,][F,A,]) [G,B,]2 (A,B,) | C2 [C,B,]2 [F,A,]2 |] %9
V:4
 x2 | x8 | x8 | x8 | x2 G,2 x4 | x8 | x8 | x6 C2 | C2 x4 |] %9

